svgs/light/game-board-simple.svg

<svg xmlns="http://www.w3.org/2000/svg" viewBox="0 0 448 512"><!-- Font Awesome Pro 6.0.0-alpha2 by @fontawesome - https://fontawesome.com License - https://fontawesome.com/license (Commercial License) --><path d="M384 32H64C28.654 32 0 60.654 0 96V416C0 451.346 28.654 480 64 480H384C419.346 480 448 451.346 448 416V96C448 60.654 419.346 32 384 32ZM416 416C416 433.645 401.645 448 384 448H64C46.355 448 32 433.645 32 416V96C32 78.355 46.355 64 64 64H384C401.645 64 416 78.355 416 96V416ZM368 240H240V112C240 103.156 232.844 96 224 96H80C71.156 96 64 103.156 64 112V256C64 264.844 71.156 272 80 272H208V400C208 408.844 215.156 416 224 416H368C376.844 416 384 408.844 384 400V256C384 247.156 376.844 240 368 240ZM208 240H96V128H208V240ZM352 384H240V272H352V384Z"/></svg>

<svg xmlns="http://www.w3.org/2000/svg" viewBox="0 0 448 512"><!--! Font Awesome Pro 6.3.0 by @fontawesome - https://fontawesome.com License - https://fontawesome.com/license (Commercial License) Copyright 2023 Fonticons, Inc. --><path d="M384 32h-320C28.65 32 0 60.65 0 96v320c0 35.35 28.65 64 64 64h320c35.35 0 64-28.65 64-64V96C448 60.65 419.3 32 384 32zM416 416c0 17.64-14.36 32-32 32H64c-17.64 0-32-14.36-32-32V96c0-17.64 14.36-32 32-32h320c17.64 0 32 14.36 32 32V416zM368 240h-128v-128c0-8.844-7.156-16-15.1-16H80C71.16 96 64 103.2 64 112L64 256c0 8.844 7.156 16 15.1 16h128v128c0 8.844 7.156 16 16 16H368c8.844 0 16-7.156 16-16L384 256C384 247.2 376.8 240 368 240zM208 240H96V128h112V240zM352 384h-112V272H352V384z"/></svg>
